public/icons/linkedin.svg

<svg xmlns="http://www.w3.org/2000/svg"  viewBox="0 0 50 50" width="30px" height="30px"><path d="M 9 4 C 6.2504839 4 4 6.2504839 4 9 L 4 41 C 4 43.749516 6.2504839 46 9 46 L 41 46 C 43.749516 46 46 43.749516 46 41 L 46 9 C 46 6.2504839 43.749516 4 41 4 L 9 4 z M 9 6 L 41 6 C 42.668484 6 44 7.3315161 44 9 L 44 41 C 44 42.668484 42.668484 44 41 44 L 9 44 C 7.3315161 44 6 42.668484 6 41 L 6 9 C 6 7.3315161 7.3315161 6 9 6 z M 14 11.011719 C 12.904779 11.011719 11.919219 11.339079 11.189453 11.953125 C 10.459687 12.567171 10.011719 13.484511 10.011719 14.466797 C 10.011719 16.333977 11.631285 17.789609 13.691406 17.933594 A 0.98809878 0.98809878 0 0 0 13.695312 17.935547 A 0.98809878 0.98809878 0 0 0 14 17.988281 C 16.27301 17.988281 17.988281 16.396083 17.988281 14.466797 A 0.98809878 0.98809878 0 0 0 17.986328 14.414062 C 17.884577 12.513831 16.190443 11.011719 14 11.011719 z M 14 12.988281 C 15.392231 12.988281 15.94197 13.610038 16.001953 14.492188 C 15.989803 15.348434 15.460091 16.011719 14 16.011719 C 12.614594 16.011719 11.988281 15.302225 11.988281 14.466797 C 11.988281 14.049083 12.140703 13.734298 12.460938 13.464844 C 12.78117 13.19539 13.295221 12.988281 14 12.988281 z M 11 19 A 1.0001 1.0001 0 0 0 10 20 L 10 39 A 1.0001 1.0001 0 0 0 11 40 L 17 40 A 1.0001 1.0001 0 0 0 18 39 L 18 33.134766 L 18 20 A 1.0001 1.0001 0 0 0 17 19 L 11 19 z M 20 19 A 1.0001 1.0001 0 0 0 19 20 L 19 39 A 1.0001 1.0001 0 0 0 20 40 L 26 40 A 1.0001 1.0001 0 0 0 27 39 L 27 29 C 27 28.170333 27.226394 27.345035 27.625 26.804688 C 28.023606 26.264339 28.526466 25.940057 29.482422 25.957031 C 30.468166 25.973981 30.989999 26.311669 31.384766 26.841797 C 31.779532 27.371924 32 28.166667 32 29 L 32 39 A 1.0001 1.0001 0 0 0 33 40 L 39 40 A 1.0001 1.0001 0 0 0 40 39 L 40 28.261719 C 40 25.300181 39.122788 22.95433 37.619141 21.367188 C 36.115493 19.780044 34.024172 19 31.8125 19 C 29.710483 19 28.110853 19.704889 27 20.423828 L 27 20 A 1.0001 1.0001 0 0 0 26 19 L 20 19 z M 12 21 L 16 21 L 16 33.134766 L 16 38 L 12 38 L 12 21 z M 21 21 L 25 21 L 25 22.560547 A 1.0001 1.0001 0 0 0 26.798828 23.162109 C 26.798828 23.162109 28.369194 21 31.8125 21 C 33.565828 21 35.069366 21.582581 36.167969 22.742188 C 37.266572 23.901794 38 25.688257 38 28.261719 L 38 38 L 34 38 L 34 29 C 34 27.833333 33.720468 26.627107 32.990234 25.646484 C 32.260001 24.665862 31.031834 23.983076 29.517578 23.957031 C 27.995534 23.930001 26.747519 24.626988 26.015625 25.619141 C 25.283731 26.611293 25 27.829667 25 29 L 25 38 L 21 38 L 21 21 z"/></svg>

<svg xmlns="http://www.w3.org/2000/svg" xmlns:xlink="http://www.w3.org/1999/xlink" viewBox="0,0,256,256" width="30px" height="30px" fill-rule="nonzero"><g fill="#ffffff" fill-rule="nonzero" stroke="none" stroke-width="1" stroke-linecap="butt" stroke-linejoin="miter" stroke-miterlimit="10" stroke-dasharray="" stroke-dashoffset="0" font-family="none" font-weight="none" font-size="none" text-anchor="none" style="mix-blend-mode: normal"><g transform="scale(5.12,5.12)"><path d="M9,4c-2.74952,0 -5,2.25048 -5,5v32c0,2.74952 2.25048,5 5,5h32c2.74952,0 5,-2.25048 5,-5v-32c0,-2.74952 -2.25048,-5 -5,-5zM9,6h32c1.66848,0 3,1.33152 3,3v32c0,1.66848 -1.33152,3 -3,3h-32c-1.66848,0 -3,-1.33152 -3,-3v-32c0,-1.66848 1.33152,-3 3,-3zM14,11.01172c-1.09522,0 -2.08078,0.32736 -2.81055,0.94141c-0.72977,0.61405 -1.17773,1.53139 -1.17773,2.51367c0,1.86718 1.61957,3.32281 3.67969,3.4668c0.0013,0.00065 0.0026,0.0013 0.00391,0.00195c0.09817,0.03346 0.20099,0.05126 0.30469,0.05273c2.27301,0 3.98828,-1.5922 3.98828,-3.52148c-0.00018,-0.01759 -0.00083,-0.03518 -0.00195,-0.05274c-0.10175,-1.90023 -1.79589,-3.40234 -3.98633,-3.40234zM14,12.98828c1.39223,0 1.94197,0.62176 2.00195,1.50391c-0.01215,0.85625 -0.54186,1.51953 -2.00195,1.51953c-1.38541,0 -2.01172,-0.70949 -2.01172,-1.54492c0,-0.41771 0.15242,-0.7325 0.47266,-1.00195c0.32023,-0.26945 0.83428,-0.47656 1.53906,-0.47656zM11,19c-0.55226,0.00006 -0.99994,0.44774 -1,1v19c0.00006,0.55226 0.44774,0.99994 1,1h6c0.55226,-0.00006 0.99994,-0.44774 1,-1v-5.86523v-13.13477c-0.00006,-0.55226 -0.44774,-0.99994 -1,-1zM20,19c-0.55226,0.00006 -0.99994,0.44774 -1,1v19c0.00006,0.55226 0.44774,0.99994 1,1h6c0.55226,-0.00006 0.99994,-0.44774 1,-1v-10c0,-0.82967 0.22639,-1.65497 0.625,-2.19531c0.39861,-0.54035 0.90147,-0.86463 1.85742,-0.84766c0.98574,0.01695 1.50758,0.35464 1.90234,0.88477c0.39477,0.53013 0.61523,1.32487 0.61523,2.1582v10c0.00006,0.55226 0.44774,0.99994 1,1h6c0.55226,-0.00006 0.99994,-0.44774 1,-1v-10.73828c0,-2.96154 -0.87721,-5.30739 -2.38086,-6.89453c-1.50365,-1.58714 -3.59497,-2.36719 -5.80664,-2.36719c-2.10202,0 -3.70165,0.70489 -4.8125,1.42383v-0.42383c-0.00006,-0.55226 -0.44774,-0.99994 -1,-1zM12,21h4v12.13477v4.86523h-4zM21,21h4v1.56055c0.00013,0.43 0.27511,0.81179 0.68291,0.94817c0.40781,0.13638 0.85714,-0.00319 1.11591,-0.34661c0,0 1.57037,-2.16211 5.01367,-2.16211c1.75333,0 3.25687,0.58258 4.35547,1.74219c1.0986,1.15961 1.83203,2.94607 1.83203,5.51953v9.73828h-4v-9c0,-1.16667 -0.27953,-2.37289 -1.00977,-3.35352c-0.73023,-0.98062 -1.9584,-1.66341 -3.47266,-1.68945c-1.52204,-0.02703 -2.77006,0.66996 -3.50195,1.66211c-0.73189,0.99215 -1.01562,2.21053 -1.01562,3.38086v9h-4z"></path></g></g></svg>
